packages/ckeditor5-icons/theme/icons/ai-quick-actions.svg

<svg viewBox="0 0 20 20" xmlns="http://www.w3.org/2000/svg">
<path d="M7.71802 5.12026C8.00333 5.89078 8.61069 6.49813 9.3812 6.78345L11.999 7.75244L9.3812 8.72144C8.61069 9.00675 8.00333 9.61411 7.71802 10.3846L6.74902 13.0024L5.78003 10.3846C5.49471 9.61411 4.88736 9.00675 4.11685 8.72144L1.49902 7.75244L4.11685 6.78345C4.88736 6.49813 5.49471 5.89078 5.78003 5.12026L6.74902 2.50244L7.71802 5.12026Z"/>
<path d="M18.3267 14.2061C18.7044 14.245 18.9995 14.5642 18.9995 14.9522C18.9993 15.3401 18.7043 15.6596 18.3267 15.6983L18.2495 15.7022H10.2495C9.83546 15.7022 9.49978 15.3662 9.49951 14.9522C9.49951 14.538 9.8353 14.2022 10.2495 14.2022H18.2495L18.3267 14.2061Z"/>
<path d="M18.2495 9.70224C18.6635 9.70245 18.9995 10.0382 18.9995 10.4522C18.9992 10.8661 18.6634 11.202 18.2495 11.2022H13.7495C13.3355 11.2022 12.9998 10.8662 12.9995 10.4522C12.9995 10.038 13.3353 9.70224 13.7495 9.70224H18.2495Z"/>
<path d="M18.2515 5.20224C18.6655 5.20242 19.0015 5.53814 19.0015 5.95224C19.0012 6.36612 18.6654 6.70206 18.2515 6.70224H13.7515C13.3374 6.70224 13.0017 6.36623 13.0015 5.95224C13.0015 5.53803 13.3373 5.20224 13.7515 5.20224H18.2515Z"/>
<path d="M3.46126 12.749C3.59711 13.1157 3.88554 13.4057 4.25228 13.5416L5.49902 14.0022L4.25228 14.4628C3.8856 14.5987 3.59718 14.8888 3.46126 15.2555L2.99902 16.5022L2.53841 15.2555C2.40248 14.8886 2.11275 14.5986 1.74577 14.4628L0.499023 14.0022L1.74577 13.5416C2.11287 13.4058 2.40254 13.1161 2.53841 12.749L2.99902 11.5022L3.46126 12.749Z"/>
</svg>

<svg xmlns="http://www.w3.org/2000/svg" viewBox="0 0 20 20"><path d="M7.718 5.12c.285.77.893 1.378 1.663 1.663l2.618.97-2.618.968a2.82 2.82 0 0 0-1.663 1.664l-.969 2.617-.969-2.617A2.82 2.82 0 0 0 4.117 8.72l-2.618-.969 2.618-.969A2.82 2.82 0 0 0 5.78 5.12l.969-2.618zm10.609 9.086a.75.75 0 0 1 0 1.492l-.078.004h-8a.75.75 0 0 1 0-1.5h8zm-.077-4.504a.75.75 0 0 1 0 1.5h-4.5a.75.75 0 0 1 0-1.5zm.002-4.5a.75.75 0 0 1 0 1.5h-4.5a.75.75 0 0 1 0-1.5zM3.461 12.749c.136.367.425.657.791.793l1.247.46-1.247.46a1.34 1.34 0 0 0-.79.793l-.463 1.247-.46-1.246a1.34 1.34 0 0 0-.793-.793l-1.247-.46 1.247-.461a1.34 1.34 0 0 0 .792-.793L3 11.502z"/></svg>
